X: 3
T: &quot;~ song ~&quot; ~ 
M: 3/4
L: 1/8
R: song
K: E Dorian
|: GE E^D E2 | G>E EG F/G/A | GE E^D E2 | F>D DG FA |
Ee e^d e4 | E>e ef ge | Ee e/d/c d>B | AF DA BF :|
